X:149
T:Roger de Covery
O:No 149 William Clarke of Feltwell
M:6/8
L:1/8
K:D
g3f3|e2d cBA| d2e fef|d2 e fef| g3 f3|e2d cBA| d'2 a bag|fge d2z:|
|:abc' d'af |efd cBA| d2 e fef| d2 e fef| abc' d'af| efd cBA| d'2a bag| fge d2z:||

